!!!OTL: WENN ICH IHN NUR HABE
!!!ARE: Europa, Mitteleuropa, Deutschland
!!!SCT: F1011
!!!YEM: Copyright 1995, estate of Helmut Schaffrath.
**kern
*ICvox
*Ivox
*M4/4
*k[b-e-a-d-g-]
*D-:
=1
{4a-
4a-
4ff
4ee-
=2
2dd-
2a-}
=3
{4a-
4dd-
4cc
4gn
=4
2.a-
4r}
=5
{4an
4an
4b-
4dd-
=6
4ff
4ee-
4.ee-
8dd-
=7
2cc}
{4b-
4cc
=8
4dd-
4b-
4a-
4gn
=9
2a-
2r}
=10
{4a-
4a-
4b-
4f
=11
2a-
2g-}
=12
{4f
4d-
4g-
4e-
=13
4a-
4f
4b-}
{4d-
=14
2d-
2e-
=15
2d-
2r}
==
!!!AGN: Erbauungs - Lied, religioes
!!!ONB: ESAC (Essen Associative Code) Database: FINK
!!!AMT: simple quadruple
!!!AIN: vox
!!!EED: Helmut Schaffrath
!!!EEV: 1.0
*-
